src/icons/test-verification.svg

<svg width="12px" height="16px" viewBox="0 0 12 16" version="1.1" xmlns="http://www.w3.org/2000/svg" xmlns:xlink="http://www.w3.org/1999/xlink">
    <g id="TEST" stroke="none" stroke-width="1" fill="none" fill-rule="evenodd">
        <path d="M11.7735439,12.3824881 L8.42316842,4.87249532 L8.42316842,1 L8.84377833,1 C9.11078573,1 9.327238,0.776141629 9.327238,0.5 C9.327238,0.22385741 9.11078573,-2.54019028e-13 8.84377833,-2.54019028e-13 L3.1752137,-2.54019028e-13 C2.9082063,-2.54019028e-13 2.69175403,0.22385741 2.69175403,0.5 C2.69175403,0.776141629 2.9082063,1 3.1752137,1 L3.58857172,1 L3.58857172,4.87249532 L0.230944313,12.3724881 C-0.125714135,13.1636556 -0.0662747816,14.088526 0.388492089,14.8239157 C0.843258959,15.5593055 1.63015018,16.0030108 2.47419718,16 L9.53754296,16 C10.3776139,15.9988596 11.1593266,15.5554602 11.6117955,14.823437 C12.0642644,14.0914138 12.1252217,13.1715061 11.7735439,12.3824881 L11.7735439,12.3824881 Z M10.7741704,14.2849439 C10.5006261,14.7341961 10.023256,15.0045968 9.51190235,15 L2.48647907,15 C1.97897658,14.9993032 1.50676921,14.7298095 1.23373676,14.2849875 C0.960704298,13.8401656 0.92448753,13.2813395 1.1376555,12.8024501 L4.52053386,5.19248228 C4.5494185,5.12656846 4.56418502,5.05491604 4.56381162,4.98248317 L4.56381162,1 L7.44178276,1 L7.44178276,4.98248317 C7.44140936,5.05491604 7.45617588,5.12656846 7.48506052,5.19248228 L10.8607259,12.8024501 C11.076151,13.2808981 11.0398216,13.8409119 10.7645531,14.2849439 L10.7741704,14.2849439 Z" id="Shape" fill="#FFFFFF" fill-rule="nonzero"></path>
    </g>
</svg>

<svg width="12" height="16" xmlns="http://www.w3.org/2000/svg"><path d="M11.774 12.382l-3.35-7.51V1h.42a.492.492 0 00.483-.5c0-.276-.216-.5-.483-.5H3.175a.492.492 0 00-.483.5c0 .276.216.5.483.5h.414v3.872l-3.358 7.5a2.626 2.626 0 00.157 2.452A2.447 2.447 0 002.474 16h7.064a2.447 2.447 0 002.074-1.177 2.626 2.626 0 00.162-2.44zm-1 1.903c-.273.45-.75.72-1.262.715H2.486c-.507 0-.98-.27-1.252-.715a1.6 1.6 0 01-.096-1.483l3.383-7.61a.517.517 0 00.043-.21V1h2.878v3.982c0 .073.014.145.043.21l3.376 7.61c.215.479.179 1.039-.096 1.483h.01z" fill="#FFF" fill-rule="nonzero"/></svg>
